X:1
T:Title
%%score { ( 1 4 ) | ( 2 3 ) }
L:1/8
Q:1/4=100
M:4/4
K:G
V:1 treble nm="Grand Piano"
V:4 treble 
V:2 bass 
V:3 bass 
V:1
 [B,D]2 [B,G]>[CA] [DB]3 [Dd] | cAFD [G,B,G]3 [G,DF] | z4 z2 .A2 | A8 | D2 G>A B3 [=Fd] | %5
w: Robert~Lowry * * * *|||||
 dc[EG][^DA] [=DB]3 [DB] | [DA]2 [DF]2 [^CE]G[A,DF]E | D6 D2 | A3 ^G AcBA | %9
w: ||||
 [CA][B,G][B,G][CE] [B,D]2 D2 | c3 B AFGB | B4 A4 | D2 G>A B3 [=Fd] | dc[EG][^DA] [=DB]3 [^DA] | %14
w: |||||
 [EG]2 [G,CE]2 [G,B,D][DG] [CDF]2 | [B,DG]8 |] %16
w: ||
V:2
 [G,,G,]2 [G,,G,]>[G,,G,] [G,,G,]3 [B,,G,] | [D,D]2 .A,2 z4 | C,2 C,2 B,,2 [A,,G,]2 | [D,F,D]8 | %4
 [G,B,]2 [G,B,]>[G,C] [G,D]3 [B,,G,] | [C,G,]2 [C,G,]2 [G,,G,]3 [G,,G,] | %6
 [A,,F,]2 [A,,A,]2 z E z [G,^C] | [D,F,]6 [D,F,]2 | [D,F,D]3 [D,=F,D] [D,D]-[D,A,D][G,D][^F,C] | %9
 [G,,G,]2 [G,,G,]2 [G,,G,]2 [D,F,]2 | [D,A,D]3 [D,G,D] D-[C,A,D]B,,G,, | [D,D]4- [D,F,D]4 | %12
 [G,B,]2 [G,B,]>[G,C] [G,D]3 [B,,G,] | [C,G,]2 [C,G,]2 [G,,G,]3 [B,,F,] | [C,E,]2 C,2 z B, D,2 | %15
 G,,8 |] %16
V:3
 x8 | A,C[D,C]-[D,F,C] G,,3 B,, | x8 | x8 | x8 | x8 | z4 [A,,A,]2 A,,2 | x8 | z4 .^F,2 D,2 | x8 | %10
 z4 .[D,F,]2 z2 | G,4 z4 | x8 | x8 | z4 D,2 z2 | x8 |] %16
V:4
 x8 | x8 | [G,CE]2 [G,EG]2 [G,DG]2 ^C-[CB] | x8 | x8 | E2 z2 z4 | x8 | x8 | x8 | x8 | %10
 z4 z2 [G,D]2 | x8 | x8 | E2 z2 z4 | x8 | x8 |] %16

